X: 29
T: Missa De plus en plus / Gloria
N: Derived from Ock1005b-Missa_De_plus_en_plus-Gloria.krn
C: Johannes Ockeghem
%%abc-version 2.0
%%abcx-abcm2ps-target-version 5.9.1 (29 Sep 2008)
%%abc-creator hum2abc beta
%%abcx-conversion-date 2019/02/17 07:26:14
%%abc-edited-by Jesse Rodin
%%abc-edited-by Will Watson 11/1/2012
%%abcx-initial-encoding-date 2012/01/11/
%%humdrum-veritas 1631620054
%%humdrum-veritas-data 831958937
%%linebreak <none>
%%barnumbers 0
L: 1/4
M: 3/1
Q: 1/2=120
%%staves [1 2 3 4]
V: 1 clef=treble
V: 2 clef=treble-8
V: 3 clef=treble-8
V: 4 clef=bass
K: C
[V:1] C8E2F2 | 
[V:2] c12- | 
[V:3] z12 :
[V:4] z12 | 
[V:1] A4G2G4E2 | 
[V:2] c12- | 
[V:3] z12 | 
[V:4] z12 | 
[V:1] C2G3EF2D4 | 
[V:2] c8B4 | 
[V:3] z12 :
[V:4] z12 | 
[V:1] C4z4C3B, | 
[V:2] c4A8 | 
[V:3] z12 | 
[V:4] z12 | 
[V:1] E2D4B,2A,2D2- | 
[V:2] G8F4 | 
[V:3] z12 :
[V:4] z12 | 
[V:1] D2E2D2G2A2c2 | 
[V:2] G4B4c4 | 
[V:3] z12 | 
[V:4] z12 | 
[V:1] B2A4G4F2 | 
[V:2] d4c2B2A4 | 
[V:3] z12 :
[V:4] z12 | 
[V:1] E2A4G3EF2 | 
[V:2] G2c4B2c2d2 | 
[V:3] z12 | 
[V:4] z12 | 
[V:1] G6C2!fermata!C4 | 
[V:2] !fermata!e12 | 
[V:3] z12 :
[V:4] z12 | 
[V:1] G6A2B4 | 
[V:2] e12- | 
[V:3] z12 | 
[V:4] z12 | 
[V:1] c6B2B2A2 | 
[V:2] e4d8 | 
[V:3] z12 :
[V:4] z12 | 
[V:1] c4B2G3Ac2 | 
[V:2] c4G4c4 | 
[V:3] z12 | 
[V:4] z12 | 
[V:1] B2d2c2A4^G2 | 
[V:2] d4A2c2B4 | 
[V:3] z12 :
[V:4] z12 | 
[V:1] A6GFE4 | 
[V:2] A3Bc2d2e2c2 | 
[V:3] z12 | 
[V:4] z12 | 
[V:1] D4G4A2c2 | 
[V:2] d2B4c4A2 | 
[V:3] z12 :
[V:4] z12 | 
[V:1] B2d4c3BAG | 
[V:2] G4B2A2c4- | 
[V:3] z12 | 
[V:4] z12 | 
[V:1] A2G4E2F2G2 | 
[V:2] c4c3dB4 | 
[V:3] z12 :
[V:4] z12 | 
[V:1] E2A4G4c2- | 
[V:2] c8e4 | 
[V:3] z12 | 
[V:4] z12 | 
[V:1] cBd4c4B2 | 
[V:2] g4c4d4 | 
[V:3] z12 :
[V:4] z12 | 
[V:1] c8z4 | 
[V:2] c8e4 | 
[V:3] z12 | 
[V:4] z12 | 
[V:1] B8B4 | 
[V:2] e4d4g4 | 
[V:3] G12 :
[V:4] z4z4G,4 | 
[V:1] G3AB2c2d3c | 
[V:2] e2d4e2f4 | 
[V:3] B12 | 
[V:4] G,6F,2D,4 | 
[V:1] e6c4BA | 
[V:2] a2g4e4c2 | 
[V:3] c12 :
[V:4] C,12- | 
[V:1] G4A2G2c4 | 
[V:2] c4z4g4 | 
[V:3] e12 | 
[V:4] C,12 | 
[V:1] B4A4B4 | 
[V:2] f4f4g4- | 
[V:3] d12- :
[V:4] z4z4G,4 | 
[V:1] G4A8 | 
[V:2] g2d4cBA4 | 
[V:3] d12 | 
[V:4] G,4F,8 | 
[V:1] G4z2c2B2c2 | 
[V:2] z2B2c4d2e2 | 
[V:3] G12- :
[V:4] G,2E,3C,C,2G,,2C,2 | 
[V:1] d2e3dB2cBAG | 
[V:2] d2g3fedc3B | 
[V:3] G12 | 
[V:4] B,,2C,4D,2E,4 | 
[V:1] F8G4 | 
[V:2] d12 | 
[V:3] A6_B4AG :
[V:4] D,8z4 | 
[V:1] A2GA_B2G4^F2 | 
[V:2] z2e2f2d4c2 | 
[V:3] F2c2d2G2A4 | 
[V:4] z12 | 
[V:1] G8z2G2- | 
[V:2] d8e4 | 
[V:3] G12 :
[V:4] z4z4G,4 | 
[V:1] G2E2D2C2F3G | 
[V:2] d2g4fed4 | 
[V:3] z12 | 
[V:4] G,3A,B,2C2D2B,2 | 
[V:1] E4C4z2c2- | 
[V:2] g4e4c4 | 
[V:3] c12- :
[V:4] C6A,4F,2 | 
[V:1] c2A2G4E4 | 
[V:2] f4g2e3cc2 | 
[V:3] c12- | 
[V:4] F,4z2C3A,A,2 | 
[V:1] F2A4G3E^F2 | 
[V:2] A2e4d2c4 | 
[V:3] c12 :
[V:4] F,2C4B,2A,4 | 
[V:1] G8z4 | 
[V:2] d4e4d4- | 
[V:3] B12- | 
[V:4] G,6E,2F,E,D,C, | 
[V:1] z12 | 
[V:2] d2g4e2f4 | 
[V:3] B12 :
[V:4] B,,2E,3F,C,2D,4 | 
[V:1] G4A2G2c3d | 
[V:2] e4c2e4f2 | 
[V:3] c8A4 | 
[V:4] C,4z4z4 | 
[V:1] B2d4B2A4 | 
[V:2] g3fedd3cA2 | 
[V:3] G4z2G4F2 :
[V:4] z12 | 
[V:1] G4F2G3ED2 | 
[V:2] B2d2c2dB2GA2 | 
[V:3] G2_B2A2G4F2 | 
[V:4] z12 | 
[V:1] F3EC2C4B,2 | 
[V:2] F2_B2G2A2F4 | 
[V:3] A2G2E2F2D4 :
[V:4] z12 | 
[V:1] C4z4E3F | 
[V:2] G8A4 | 
[V:3] C12 | 
[V:4] z4z4C4 | 
[V:1] G2FGA2G4^F2 | 
[V:2] G4d4z4 | 
[V:3] z4z4c4 :
[V:4] E2D4B,2A,4 | 
[V:1] G4B2A3GG2 | 
[V:2] d8e4 | 
[V:3] B8c4 | 
[V:4] z2G,4F,2E,4 | 
[V:1] z2B2A2G2d4 | 
[V:2] f2g2f2d6- | 
[V:3] d8G4- :
[V:4] D,2G,2A,2B,6 | 
[V:1] B2G2A2c4A2 | 
[V:2] d2B2A4c4 | 
[V:3] G4F8 | 
[V:4] G,2D4CB,A,4 | 
[V:1] B4G2A3DE2 | 
[V:2] d8B2c2 | 
[V:3] z2G4F2E4 :
[V:4] G,3F,E,D,D,4C,2 | 
[V:1] F2A3_Bd3cBA | 
[V:2] z2d4f4f2- | 
[V:3] D12- | 
[V:4] D,2F,3G,_B,2A,2D2- | 
[V:1] A2d4d3cA2 | 
[V:2] fe2df2g2z2^f2 | 
[V:3] D12 :
[V:4] DC_B,2A,2G,2A,4 | 
[V:1] B4z4B4 | 
[V:2] g8z4 | 
[V:3] d12 | 
[V:4] G,12 | 
[V:1] B6c2d4 | 
[V:2] g6fef2g2 | 
[V:3] z12 :
[V:4] z12 | 
[V:1] e12- | 
[V:2] c6g3fa2- | 
[V:3] z12 | 
[V:4] z12 | 
[V:1] e4d8 | 
[V:2] age2g2a2f4 | 
[V:3] z12 :
[V:4] z12 | 
[V:1] e4d2B3Gd2- | 
[V:2] e4z4g4- | 
[V:3] z12 | 
[V:4] z12 | 
[V:1] d6B2A2c2 | 
[V:2] g4f8 | 
[V:3] z12 :
[V:4] z12 | 
[V:1] B2G2A3GE3D | 
[V:2] g4z2c6- | 
[V:3] z12 | 
[V:4] z12 | 
[V:1] E2G4E2D4 | 
[V:2] c2B2G2c3df2 | 
[V:3] z12 :
[V:4] z12 | 
[V:1] C4z2G2c2d2 | 
[V:2] a2g4e2f2d2 | 
[V:3] z12 | 
[V:4] z12 | 
[V:1] e3dB2c2d2B2 | 
[V:2] c2g4e2f2g2 | 
[V:3] z12 :
[V:4] z12 | 
[V:1] A2d3ce4c2- | 
[V:2] a2f2g4c4 | 
[V:3] z12 | 
[V:4] z12 | 
[V:1] c2B2c3BA2G2- | 
[V:2] d4c8 | 
[V:3] z12 :
[V:4] z12 | 
[V:1] G2A4G2F4 | 
[V:2] c3df2e4d2 | 
[V:3] z12 | 
[V:4] z12 | 
[V:1] E4z4G4- | 
[V:2] c3BG8 | 
[V:3] z12 :
[V:4] z12 | 
[V:1] G2A2B2c2d4 | 
[V:2] z12 | 
[V:3] z12 | 
[V:4] E,3F,G,3A,B,2G,2 | 
[V:1] d4z4d4 | 
[V:2] z12 | 
[V:3] z12 :
[V:4] z2D3B,B,2G,2D2- | 
[V:1] B4c4d4- | 
[V:2] z12 | 
[V:3] z12 | 
[V:4] DCD2E4D4- | 
[V:1] d4B4B2G2- | 
[V:2] z12 | 
[V:3] z12 :
[V:4] D2B,4G,2G,2F,E, | 
[V:1] GFE2D2z2G3A | 
[V:2] z12 | 
[V:3] z12 | 
[V:4] D,2G,4F,2E,2C,2- | 
[V:1] GF/E/D2E3D/C/B,3C | 
[V:2] z12 | 
[V:3] z12 :
[V:4] C,2B,,2C,2E,2D,2G,2- | 
[V:1] D2E2D2G2A2B2 | 
[V:2] z12 | 
[V:3] z12 | 
[V:4] G,2G,3F,E,D,D3C/D/ | 
[V:1] c3BAGG4^F2 | 
[V:2] z12 | 
[V:3] z12 :
[V:4] E2D2B,2C2A,4 | 
[V:1] G12 ||  
[V:2] z12 ||  
[V:3] z12 ||  
[V:4] G,12 ||  
[V:1] [M:2/1]G8 | 
[V:2] [M:2/1]e8- | 
[V:3] [M:4/2]c8- :
[V:4] [M:2/1]C,8- | 
[V:1] A4c4- | 
[V:2] e8 | 
[V:3] c8- | 
[V:4] C,8 | 
[V:1] c2B2A4 | 
[V:2] e8- | 
[V:3] c8- :
[V:4] C,6D,2 | 
[V:1] G4A4 | 
[V:2] e8 | 
[V:3] c8 | 
[V:4] E,6F,2 | 
[V:1] B6c2 | 
[V:2] d8 | 
[V:3] G8- :
[V:4] G,6A,2 | 
[V:1] d6cB | 
[V:2] g8 | 
[V:3] G8 | 
[V:4] B,2C2D4- | 
[V:1] A4B4- | 
[V:2] f4g4- | 
[V:3] z4G4 :
[V:4] D4G,4 | 
[V:1] B4G4- | 
[V:2] g4e4- | 
[V:3] G8- | 
[V:4] z4G,4 | 
[V:1] G4G4 | 
[V:2] e2d2d4- | 
[V:3] G8 :
[V:4] B,8 | 
[V:1] A4F4- | 
[V:2] d2c2A4 | 
[V:3] D8- | 
[V:4] A,8 | 
[V:1] F2D2E4 | 
[V:2] B4c4- | 
[V:3] D4C4 :
[V:4] F,4G,4 | 
[V:1] F4A4 | 
[V:2] c4d4- | 
[V:3] F8 | 
[V:4] A,4D,4 | 
[V:1] G4E4 | 
[V:2] d2B2c4 | 
[V:3] E8 :
[V:4] z4G,4- | 
[V:1] z8 | 
[V:2] d2c2A4 | 
[V:3] D8 | 
[V:4] G,2E,2F,4 | 
[V:1] z8 | 
[V:2] B4G2c2 | 
[V:3] z4D4- :
[V:4] G,2G,,4F,,2 | 
[V:1] z8 | 
[V:2] B2G4^F2 | 
[V:3] D4C4 | 
[V:4] G,,2_B,,2A,,4 | 
[V:1] z8 | 
[V:2] G2B4c2 | 
[V:3] D4E4 :
[V:4] G,,8- | 
[V:1] z8 | 
[V:2] d4B2e2- | 
[V:3] D4G4- | 
[V:4] G,,8 | 
[V:1] z8 | 
[V:2] edB2c2d2 | 
[V:3] G8- :
[V:4] z8 | 
[V:1] z8 | 
[V:2] G4A4 | 
[V:3] G4^F4 | 
[V:4] z8 | 
[V:1] D4G4- | 
[V:2] G8 | 
[V:3] G8- :
[V:4] z4C,4- | 
[V:1] G2F2D4 | 
[V:2] z4B4 | 
[V:3] G8 | 
[V:4] C,4B,,4 | 
[V:1] E4G4 | 
[V:2] A4G4 | 
[V:3] z8 :
[V:4] C,4E,4 | 
[V:1] F6D2 | 
[V:2] A6B2 | 
[V:3] d8 | 
[V:4] D,8 | 
[V:1] C8 | 
[V:2] c8 | 
[V:3] e8- :
[V:4] A,6G,2 | 
[V:1] c8 | 
[V:2] z4g4- | 
[V:3] e8 | 
[V:4] A,4C4 | 
[V:1] d8 | 
[V:2] g8 | 
[V:3] d8- :
[V:4] B,4G,4 | 
[V:1] B4G4- | 
[V:2] f4d4 | 
[V:3] d4B4 | 
[V:4] z8 | 
[V:1] G4A4- | 
[V:2] e8 | 
[V:3] c8 :
[V:4] z8 | 
[V:1] A2E2^F4 | 
[V:2] c8 | 
[V:3] A8 | 
[V:4] z8 | 
[V:1] G8 | 
[V:2] d8- | 
[V:3] G8 :
[V:4] z8 | 
[V:1] z4D4 | 
[V:2] d4B4- | 
[V:3] z8 | 
[V:4] D,4G,4- | 
[V:1] G6A2 | 
[V:2] B4G4 | 
[V:3] z8 :
[V:4] G,2A,2B,4 | 
[V:1] B4G4 | 
[V:2] z8 | 
[V:3] z8 | 
[V:4] G,4z4 | 
[V:1] z4D4 | 
[V:2] z8 | 
[V:3] z8 :
[V:4] D,4G,4- | 
[V:1] G8 | 
[V:2] z8 | 
[V:3] z8 | 
[V:4] G,2A,2B,4 | 
[V:1] A4B4 | 
[V:2] z8 | 
[V:3] z8 :
[V:4] C4z4 | 
[V:1] z4D4 | 
[V:2] z8 | 
[V:3] z8 | 
[V:4] G,6A,2 | 
[V:1] G8 | 
[V:2] z8 | 
[V:3] z8 :
[V:4] B,8 | 
[V:1] A4B4 | 
[V:2] z8 | 
[V:3] z8 | 
[V:4] C4D4 | 
[V:1] z4D4 | 
[V:2] z8 | 
[V:3] z8 :
[V:4] D,4G,4- | 
[V:1] G6A2 | 
[V:2] z8 | 
[V:3] z8 | 
[V:4] G,2A,2B,4 | 
[V:1] B4d4- | 
[V:2] z8 | 
[V:3] z8 :
[V:4] G,6A,2 | 
[V:1] d2c2c4- | 
[V:2] z8 | 
[V:3] z8 | 
[V:4] B,4C4 | 
[V:1] c2A2B4 | 
[V:2] z8 | 
[V:3] z8 :
[V:4] D8 | 
[V:1] c8- | 
[V:2] g8- | 
[V:3] z8 | 
[V:4] C8- | 
[V:1] c4e4- | 
[V:2] g8- | 
[V:3] z8 :
[V:4] C8 | 
[V:1] e2d2d4- | 
[V:2] g8 | 
[V:3] z8 | 
[V:4] G,8- | 
[V:1] d2B2B4 | 
[V:2] d8 | 
[V:3] z8 :
[V:4] G,8 | 
[V:1] G4A2c2- | 
[V:2] e8- | 
[V:3] z8 | 
[V:4] z4C4- | 
[V:1] c2B2A2G2 | 
[V:2] e8 | 
[V:3] z8 :
[V:4] C8- | 
[V:1] A4G4- | 
[V:2] z4d4- | 
[V:3] z8 | 
[V:4] C4G,4 | 
[V:1] G4F4 | 
[V:2] d4c4 | 
[V:3] z8 :
[V:4] A,8 | 
[V:1] _B6AG | 
[V:2] d8 | 
[V:3] z4D4- | 
[V:4] G,4z4 | 
[V:1] A6GF | 
[V:2] f6ed | 
[V:3] D4D4 :
[V:4] z8 | 
[V:1] G4F2E2- | 
[V:2] c8 | 
[V:3] E4A4 | 
[V:4] z8 | 
[V:1] E2D2D4- | 
[V:2] B4A4 | 
[V:3] G4F4 :
[V:4] z8 | 
[V:1] D2^C2C2B,2 | 
[V:2] G8 | 
[V:3] E8 | 
[V:4] z8 | 
[V:1] D8- | 
[V:2] A4d4 | 
[V:3] D8 :
[V:4] z4_B,4- | 
[V:1] D8- | 
[V:2] z4g4 | 
[V:3] z8 | 
[V:4] B,2A,2G,4 | 
[V:1] D8 | 
[V:2] a6g2 | 
[V:3] z8 :
[V:4] F,4G,4 | 
[V:1] z4A4 | 
[V:2] e4f4 | 
[V:3] z8 | 
[V:4] A,8 | 
[V:1] B6AB | 
[V:2] g8 | 
[V:3] z8 :
[V:4] G,8 | 
[V:1] c4d4- | 
[V:2] a6gf | 
[V:3] z8 | 
[V:4] z8 | 
[V:1] d4c4 | 
[V:2] e2d2e4 | 
[V:3] z8 :
[V:4] z4A,4 | 
[V:1] d4B4- | 
[V:2] d8 | 
[V:3] z8 | 
[V:4] B,4G,4- | 
[V:1] B2A2A4 | 
[V:2] z4d4- | 
[V:3] z8 :
[V:4] G,4F,4 | 
[V:1] z4G4 | 
[V:2] d4c4 | 
[V:3] z8 | 
[V:4] E,8 | 
[V:1] F8 | 
[V:2] d4B4- | 
[V:3] z8 :
[V:4] D,8- | 
[V:1] D4E4 | 
[V:2] B2A2A4- | 
[V:3] z8 | 
[V:4] D,4C,4 | 
[V:1] F4D4- | 
[V:2] A4F4 | 
[V:3] z8 :
[V:4] D,8 | 
[V:1] D4^C4 | 
[V:2] G8 | 
[V:3] z8 | 
[V:4] E,8 | 
[V:1] D2F2G2A2- | 
[V:2] A8 | 
[V:3] z8 :
[V:4] D,8 | 
[V:1] A2G2G2F2 | 
[V:2] _B8 | 
[V:3] z8 | 
[V:4] z8 | 
[V:1] A8 | 
[V:2] A4c4 | 
[V:3] z8 :
[V:4] F,8 | 
[V:1] z4d4- | 
[V:2] _B4G4 | 
[V:3] z8 | 
[V:4] G,8 | 
[V:1] d4c4 | 
[V:2] z4A4 | 
[V:3] z8 :
[V:4] F,8 | 
[V:1] B4G4- | 
[V:2] G4B4- | 
[V:3] z8 | 
[V:4] G,8 | 
[V:1] G4G4 | 
[V:2] B4G4 | 
[V:3] z8 :
[V:4] z4G,4- | 
[V:1] d8- | 
[V:2] z4A4 | 
[V:3] z8 | 
[V:4] G,4F,4 | 
[V:1] d8 | 
[V:2] B2G4g2- | 
[V:3] z8 :
[V:4] G,4_B,4 | 
[V:1] c4B4 | 
[V:2] g2f2g4- | 
[V:3] z8 | 
[V:4] A,4G,4- | 
[V:1] d8 | 
[V:2] g2f2d4- | 
[V:3] z8 :
[V:4] G,8 | 
[V:1] G4z4 | 
[V:2] d4e2g2 | 
[V:3] z8 | 
[V:4] B,4C4 | 
[V:1] A4B4 | 
[V:2] f6d2 | 
[V:3] z8 :
[V:4] D8 | 
[V:1] d4e4- | 
[V:2] d4z2g2- | 
[V:3] z8 | 
[V:4] B,4C4 | 
[V:1] e2d2B4 | 
[V:2] g2f2g4 | 
[V:3] z8 :
[V:4] D4E4- | 
[V:1] c4d4- | 
[V:2] c4z4 | 
[V:3] z8 | 
[V:4] E4D4 | 
[V:1] d2c2A4 | 
[V:2] f2d2e4 | 
[V:3] z8 :
[V:4] B,4C4 | 
[V:1] B4A4- | 
[V:2] f6e2 | 
[V:3] z8 | 
[V:4] D6C2 | 
[V:1] A2D2D4 | 
[V:2] f4g4 | 
[V:3] z8 :
[V:4] A,4B,4 | 
[V:1] z4A4- | 
[V:2] a4f4- | 
[V:3] z8 | 
[V:4] A,6D,2 | 
[V:1] A2GAB2c2 | 
[V:2] f2d2d4 | 
[V:3] z8 :
[V:4] D,4z2D2- | 
[V:1] d6cB | 
[V:2] z4g4 | 
[V:3] z8 | 
[V:4] D2B,2B,2G,2 | 
[V:1] A4G3A | 
[V:2] e2f2c4 | 
[V:3] z8 :
[V:4] C2D2E4 | 
[V:1] B4A4 | 
[V:2] G4z4 | 
[V:3] z8 | 
[V:4] D2B,2C2D2- | 
[V:1] F2G2D2G2 | 
[V:2] d8- | 
[V:3] z8 :
[V:4] D2G,3F,G,2 | 
[V:1] A2B4G2- | 
[V:2] d8 | 
[V:3] z8 | 
[V:4] D,2D4G,2 | 
[V:1] G2^F2G4 | 
[V:2] c4d4 | 
[V:3] z8 :
[V:4] A,4G,4 | 
[V:1] G8 ||  
[V:2] d8 ||  
[V:3] z8 ||  
[V:4] G,8 ||  
[V:1] [M:3/1]G6A2B4 | 
[V:2] [M:3/1]g12- | 
[V:3] [M:3/1]z12 :
[V:4] [M:3/1]z12 | 
[V:1] B4c8 | 
[V:2] g4a8 | 
[V:3] z12 | 
[V:4] z12 | 
[V:1] d4e6c2 | 
[V:2] g12 | 
[V:3] z12 :
[V:4] z12 | 
[V:1] c6BAB4 | 
[V:2] c4d6cB | 
[V:3] z12 | 
[V:4] z12 | 
[V:1] c8A4 | 
[V:2] A8e3d | 
[V:3] z12 :
[V:4] C12- | 
[V:1] A4c4e4- | 
[V:2] e2a3gg4^f2 | 
[V:3] z12 | 
[V:4] C4A,8 | 
[V:1] e4d8 | 
[V:2] g6f2d4 | 
[V:3] G12 :
[V:4] z4z4G,4 | 
[V:1] d6c2B3A | 
[V:2] z2g6d2e2 | 
[V:3] B12 | 
[V:4] G,4E,3F,G,4 | 
[V:1] A6G4c2 | 
[V:2] f3ec2e4f2 | 
[V:3] c12 :
[V:4] F,6G,2A,4 | 
[V:1] B4A6GA | 
[V:2] g4c4z4 | 
[V:3] e12 | 
[V:4] G,4z2C2A,2C2 | 
[V:1] B2c2d6c2 | 
[V:2] g6a2g4 | 
[V:3] d12- :
[V:4] B,2G,4F,2G,4 | 
[V:1] A4F2D2G2FA- | 
[V:2] f4d4z2d2 | 
[V:3] d12 | 
[V:4] z2D,4B,,2B,,3A,, | 
[V:1] AFE2F2D4^C2 | 
[V:2] B2c2A2F2G4 | 
[V:3] z12 :
[V:4] D,2C,2D,4E,4 | 
[V:1] D4z2A3G/F/ED | 
[V:2] A4F4z2c2 | 
[V:3] z12 | 
[V:4] D,4A,4C4 | 
[V:1] G3AB2c2d2e2- | 
[V:2] d4e4d2g2- | 
[V:3] z12 :
[V:4] B,2G,4A,2B,2C2 | 
[V:1] edd4c2d3B | 
[V:2] g2f2e4d4 | 
[V:3] z8z2G2- | 
[V:4] D4A,4B,4- | 
[V:1] G2A2B6AB | 
[V:2] e2f2g2f4e2 | 
[V:3] G2F2E2D2d2cd :
[V:4] B,2A,2z2F,2D,4 | 
[V:1] c2B4G4^F2 | 
[V:2] g3fd4z2d2 | 
[V:3] e2d2G2B2A4 | 
[V:4] C,2G,3F,G,2D,4 | 
[V:1] G12- | 
[V:2] d8B3c | 
[V:3] G12- :
[V:4] G,,12- | 
[V:1] G12 |]  
[V:2] d12 |]  
[V:3] G12 |]  
[V:4] G,,12 |]  



